src/assets/img/brands/trek.svg

<svg viewBox="0 0 501 60" fill="none" xmlns="http://www.w3.org/2000/svg">
<path d="M414.353 0H372.393L350.893 59.4356H392.853L414.353 0Z" fill="currentColor"/>
<path d="M406.723 27.7251L431.517 59.4356H479.893L452.151 28.0716L500.353 0H451.11L406.723 27.7251Z" fill="currentColor"/>
<path d="M359.04 11.4366L363.201 0H255.873L241.135 40.8945C240.268 43.4937 240.095 46.4395 242.002 48.6922C242.696 49.3853 247.377 54.9303 248.418 55.97C250.151 57.8761 252.232 59.4356 255.7 59.4356H341.701L345.862 48.1723H285.696C282.055 48.1723 280.321 45.3998 281.188 42.6273L283.962 35.1762H350.544L354.705 23.7396H288.124L292.632 11.4366H359.04Z" fill="currentColor"/>
<path d="M235.761 0H128.953L107.453 59.4356H148.373L165.712 11.4366H196.228C199.523 11.4366 200.737 13.8625 200.043 16.1152C199.349 18.5411 198.309 21.4869 197.442 23.2197C196.402 25.6457 193.974 27.5518 190.333 27.5518C186.692 27.5518 161.724 27.5518 161.724 27.5518L186.519 59.2623H233.507L212.354 35.5227C212.354 35.5227 220.85 35.5227 225.011 35.5227C230.906 35.5227 234.374 32.4037 235.935 28.4182C237.669 23.9129 241.656 12.9961 242.87 9.35721C245.124 3.63892 241.656 0 235.761 0Z" fill="currentColor"/>
<path d="M121.497 0H4.97971L0.818359 11.4366H41.0447L23.7058 59.4356H63.2385L80.5775 11.4366H117.509L121.497 0Z" fill="currentColor"/>
</svg>

<svg viewBox="0 0 501 60" fill="none" xmlns="http://www.w3.org/2000/svg"><path d="M414.353 0h-41.96l-21.5 59.436h41.96L414.353 0zM406.723 27.725l24.794 31.71h48.376l-27.742-31.363L500.353 0H451.11l-44.387 27.725zM359.04 11.437L363.201 0H255.873l-14.738 40.895c-.867 2.599-1.04 5.544.867 7.797.694.693 5.375 6.238 6.416 7.278 1.733 1.906 3.814 3.466 7.282 3.466h86.001l4.161-11.264h-60.166c-3.641 0-5.375-2.772-4.508-5.545l2.774-7.45h66.582l4.161-11.437h-66.581l4.508-12.303h66.408zM235.761 0H128.953l-21.5 59.436h40.92l17.339-48h30.516c3.295 0 4.509 2.427 3.815 4.68-.694 2.425-1.734 5.37-2.601 7.104-1.04 2.426-3.468 4.332-7.109 4.332h-28.609l24.795 31.71h46.988l-21.153-23.74h12.657c5.895 0 9.363-3.118 10.924-7.104 1.734-4.505 5.721-15.422 6.935-19.06C245.124 3.637 241.656 0 235.761 0zM121.497 0H4.98L.818 11.437h40.227l-17.34 47.999H63.24l17.339-48h36.931L121.497 0z" fill="currentColor"/></svg>
